X: 1
T: Indian Reel
C:
R: reel
S: Fiddle Hell Online 2021-4-15 Rodney Miller workshop handout
Z: 2021 John Chambers <jc:trillian.mit.edu>
M: C|
L: 1/8
K: G
Bc |\
"G"d2gd B2dB | GBAG D2B2 | "D"A^GAB cAFA | "G"GABc d2Bc |
"G"d2gd B2dB | G2BG D2B2 | "D"A^GAB cAFA | "G"GFGA G2 :|
|: (3GAB |\
"C"c2Gc e2ce | g4 gagf | edeg "G"fedc | BGAB "C"cBAG |
"C"c2Gc e2ce | g4 zagf | edeg "G"fedc | BGAB "C"c2 :|
